X:1
T:Title
%%score [ ( 1 2 ) ( 3 4 ) ] { ( 5 6 ) | ( 7 8 ) }
L:1/8
Q:1/4=120
M:4/4
K:F
V:1 treble nm="Midi_74"
V:2 treble 
V:3 bass nm="Midi_74"
V:4 bass 
V:5 treble nm="Org."
V:6 treble 
V:7 bass 
V:8 bass 
V:1
 (F6 E2) | (F3 G) (A3 B) | c8 || (A6 F2) | d4 f4 | (B2 A2) (G2 F2) |{A} G8 || (c6 =B2) | %8
 (c3 d) (e3 f) | g8 || (e6 c2) | (f2 c2) (B2 A2) |"^John Camidge\n(1790-1859)" G4 E4 | F8 |] %14
V:2
 (F,6 E,2) | (F,3 G,) (A,3 B,) | C8 || (C6 F2) | F4 F4 | (F2 E2) D4 | C8 || (C6 =B,2) | %8
 (C3 D) (E3 F) | G8 || (G6 E2) | F4 (F2 E2) | D4 B,4 | A,8 |] %14
V:3
 (F,6 E,2) | (F,3 G,) (A,3 B,) | C8 || C8 | D4 C4 | (B,2 C2) (D2 G,2) |{F,} E,8 || (C6 =B,2) | %8
 (C3 D) (E3 F) | G8 || C8 | C4 (D2 C2) | B,4 G,4 | F,8 |] %14
V:4
 (F,6 E,2) | (F,3 G,) (A,3 B,) | C8 || (F,6 A,2) | B,4 A,4 | (D,2 C,2) (B,,2 =B,,2) | C,8 || %7
 (C,6 =B,,2) | (C,3 D,) (E,3 F,) | G,8 || (C,6 B,,2) | A,,4 (D,2 C,2) | B,,4 C,4 | F,,8 |] %14
V:5
 F6 E2 | F3 G A3 B | c8 || A6 F2 | d4 f4 | B2 A2 G2 F2 |{A} G8 || [Cc]6 [=B,=B]2 | %8
 [Cc]3 [Dd] [Ee]3 [Ff] | [Gg]8 || e6 c2 | [cf]2 c2 B2 A2 | G4 E4 | F8 |] %14
V:6
 x8 | x8 | x8 || C8 | F4 [Fc]4 | F2 E2 D4 | [CE]8 || x8 | x8 | x8 || G6 [EG]2 | F4 [B,F]2 [CE]2 | %12
 D4 B,4 | A,8 |] %14
V:7
 [F,,F,]6 [E,,E,]2 | %1
"^Discrepancy: bar 12 beat 4 alto in organ part is F, not E." [F,,F,]3 [G,,G,] [A,,A,]3 [B,,B,] | %2
 [C,C]8 || x8 | x8 | x8 | G,8 ||"^8 vi" x8 | x8 | x8 || G,8 | F,8 | B,4 G,4 | [F,A,]8 |] %14
V:8
 x8 | x8 | x8 || [F,,F,]6 [A,,A,]2 | [B,,B,]4 [A,,A,]4 | [D,D]2 [C,C]2 [B,,B,]2 [=B,,G,]2 | C,8 || %7
 C,6 =B,,2 | C,3 D, E,3 F, | G,8 || C,6 B,,2 | A,,4 D,2 C,2 | B,,4 C,4 | F,,8 |] %14

